tiubenedict/TweetsNowcast/Results/Original/DFM_Opt_W1000_GDP_E_summary.csv
date,Model,Nowcast_A,Actual_A,Difference_A,Overall_RMSE_A,Month_RMSE_A,Quarter_RMSE_A,Year_RMSE_A,Period_RMSE_A,Nowcast_Q,Actual_Q,Difference_Q,Overall_RMSE_Q,Month_RMSE_Q,Quarter_RMSE_Q,Period_RMSE_Q,ForecastQ1,ForecastQ2,ForecastQ3,ForecastQ4
2017-01-31,"DFM(1, 3, 1, 0)",,6.930988359106127,,4.651134397360903,,5.135813601246687,0.6739039570179468,0.44184732392610454,6.6379765697944295,6.374132670872501,0.2638438989219285,6.242904218151225,8.077051312364793,0.16739676985838786,0.6203403573102231,6.6379765697944295,6.253310872830706,5.965539678333658,5.900056855552142
2017-02-28,"DFM(1, 3, 1, 0)",6.0794798219163,6.930988359106127,-0.8515085371898268,4.651134397360903,7.37861285373425,4.53551289093118,0.6739039570179468,0.44184732392610454,6.466049738201381,6.374132670872501,0.09191706732887983,6.242904218151225,5.2312627456802705,0.16739676985838786,0.6203403573102231,6.466049738201381,6.0790073916255665,5.899530439083109,5.9083694251929995
2017-03-31,"DFM(1, 3, 1, 0)",6.074370938546725,6.930988359106127,-0.8566174205594024,4.651134397360903,7.244241380436576,4.374651706993041,0.6739039570179468,0.44184732392610454,6.451609670120017,6.374132670872501,0.07747699924751572,6.242904218151225,4.931195738775231,0.16739676985838786,0.6203403573102231,6.451609670120017,6.108262031822978,5.894691529089456,5.878285527078159
2017-04-30,"DFM(1, 3, 1, 0)",6.071818956252795,6.930988359106127,-0.8591694028533325,4.651134397360903,7.305199878120903,5.135813601246687,0.6739039570179468,0.44184732392610454,6.081059514010861,7.177099324384795,-1.0960398103739335,6.242904218151225,8.077051312364793,1.1301680992346326,0.6203403573102231,6.460206448842041,6.081059514010861,5.8889811270055645,5.892461601391573
2017-05-31,"DFM(1, 3, 1, 0)",5.994936318254718,6.930988359106127,-0.9360520408514095,4.651134397360903,5.0796242395225715,4.53551289093118,0.6739039570179468,0.44184732392610454,6.031779461868963,7.177099324384795,-1.1453198625158318,6.242904218151225,5.2312627456802705,1.1301680992346326,0.6203403573102231,6.44668561134365,6.031779461868963,5.788385401486602,5.818176004965149
2017-06-30,"DFM(1, 3, 1, 0)",5.98811576903886,6.930988359106127,-0.9428725900672674,4.651134397360903,4.6981908083646715,4.374651706993041,0.6739039570179468,0.44184732392610454,6.028718314360224,7.177099324384795,-1.148381010024571,6.242904218151225,4.931195738775231,1.1301680992346326,0.6203403573102231,6.445400656669151,6.028718314360224,5.778447663651623,5.804696987355348
2017-07-31,"DFM(1, 3, 1, 0)",5.985420305916955,6.930988359106127,-0.9455680531891719,4.651134397360903,4.804464854414138,5.135813601246687,0.6739039570179468,0.44184732392610454,5.784141271044317,7.5315964750689135,-1.7474552040245968,6.242904218151225,8.077051312364793,1.1595335989567301,0.6203403573102231,6.448783936789755,6.019195368708491,5.784141271044317,5.798761350176491
2017-08-31,"DFM(1, 3, 1, 0)",6.796407517982783,6.930988359106127,-0.134580841123344,4.651134397360903,1.171991318341714,4.53551289093118,0.6739039570179468,0.44184732392610454,6.783902117339209,7.5315964750689135,-0.7476943577297046,6.242904218151225,5.2312627456802705,1.1595335989567301,0.6203403573102231,6.487111437615774,6.059357972366856,6.783902117339209,6.80653780224022
2017-09-30,"DFM(1, 3, 1, 0)",6.876701799932627,6.930988359106127,-0.05428655917349978,4.651134397360903,1.2385527085957422,4.374651706993041,0.6739039570179468,0.44184732392610454,6.882822278082658,7.5315964750689135,-0.6487741969862553,6.242904218151225,4.931195738775231,1.1595335989567301,0.6203403573102231,6.547512740502087,6.027634251640358,6.882822278082658,7.0155523311773385
2017-10-31,"DFM(1, 3, 1, 0)",6.874495739610076,6.930988359106127,-0.05649261949605133,4.651134397360903,1.6373503729052776,5.135813601246687,0.6739039570179468,0.44184732392610454,7.009833010278782,6.641205761074875,0.36862724920390644,6.242904218151225,8.077051312364793,0.754152538487346,0.6203403573102231,6.545422658360873,6.025188487530029,6.8800781982889605,7.009833010278782
2017-11-30,"DFM(1, 3, 1, 0)",7.170566010697477,6.930988359106127,0.23957765159134947,4.651134397360903,0.8145152085171387,4.53551289093118,0.6739039570179468,0.44184732392610454,7.526408390730142,6.641205761074875,0.8852026296552662,6.242904218151225,5.2312627456802705,0.754152538487346,0.6203403573102231,6.567362114125156,6.039450224271587,6.93775553737928,7.526408390730142
2017-12-31,"DFM(1, 3, 1, 0)",7.1710523739405785,6.930988359106127,0.24006401483445128,4.651134397360903,0.6813716813800998,4.374651706993041,0.6739039570179468,0.44184732392610454,7.528205428220521,6.641205761074875,0.8869996671456457,6.242904218151225,4.931195738775231,0.754152538487346,0.6203403573102231,6.566733685906937,6.0423940089454415,6.938322694421046,7.528205428220521
2018-01-31,"DFM(1, 3, 1, 0)",,6.341485548182635,,4.651134397360903,,5.135813601246687,0.11647745716392875,0.44184732392610454,7.036117298560523,6.45455988268846,0.5815574158720631,6.242904218151225,8.077051312364793,0.3361586174681667,0.6203403573102231,7.036117298560523,6.586589320471239,6.212168021279826,5.992178526861024
2018-02-28,"DFM(1, 3, 1, 0)",6.14432392013573,6.341485548182635,-0.19716162804690462,4.651134397360903,7.37861285373425,4.53551289093118,0.11647745716392875,0.44184732392610454,6.4353213216364615,6.45455988268846,-0.019238561051998282,6.242904218151225,5.2312627456802705,0.3361586174681667,0.6203403573102231,6.4353213216364615,6.066824051984616,6.030111060127761,6.071997387083231
2018-03-31,"DFM(1, 3, 1, 0)",6.163882457003966,6.341485548182635,-0.17760309117866857,4.651134397360903,7.244241380436576,4.374651706993041,0.11647745716392875,0.44184732392610454,6.433854856555068,6.45455988268846,-0.02070502613339187,6.242904218151225,4.931195738775231,0.3361586174681667,0.6203403573102231,6.433854856555068,6.089932350529085,6.055871672463568,6.100575298609453
2018-04-30,"DFM(1, 3, 1, 0)",6.230271560013745,6.341485548182635,-0.11121398816889005,4.651134397360903,7.305199878120903,5.135813601246687,0.11647745716392875,0.44184732392610454,6.091207083341233,6.378895138790686,-0.2876880554494523,6.242904218151225,8.077051312364793,0.30082150366372923,0.6203403573102231,6.434519063396402,6.091207083341233,6.196921790801852,6.218713320543124
2018-05-31,"DFM(1, 3, 1, 0)",6.154393196711583,6.341485548182635,-0.18709235147105208,4.651134397360903,5.0796242395225715,4.53551289093118,0.11647745716392875,0.44184732392610454,6.046864004757534,6.378895138790686,-0.33203113403315143,6.242904218151225,5.2312627456802705,0.30082150366372923,0.6203403573102231,6.411888017154727,6.046864004757534,6.057501494403869,6.087499032883674
2018-06-30,"DFM(1, 3, 1, 0)",6.234365088176341,6.341485548182635,-0.1071204600062936,4.651134397360903,4.6981908083646715,4.374651706993041,0.11647745716392875,0.44184732392610454,6.09876723945916,6.378895138790686,-0.28012789933152593,6.242904218151225,4.931195738775231,0.30082150366372923,0.6203403573102231,6.427862162249565,6.09876723945916,6.188516628430249,6.217035543829492
2018-07-31,"DFM(1, 3, 1, 0)",6.253454948931325,6.341485548182635,-0.08803059925130974,4.651134397360903,4.804464854414138,5.135813601246687,0.11647745716392875,0.44184732392610454,6.189859887630139,6.145971043999454,0.04388884363068524,6.242904218151225,8.077051312364793,0.13455690209997093,0.6203403573102231,6.427116293036743,6.094863412784025,6.189859887630139,6.290297520728163
2018-08-31,"DFM(1, 3, 1, 0)",6.383989904406806,6.341485548182635,0.04250435622417115,4.651134397360903,1.171991318341714,4.53551289093118,0.11647745716392875,0.44184732392610454,6.3087591303899755,6.145971043999454,0.16278808639052134,6.242904218151225,5.2312627456802705,0.13455690209997093,0.6203403573102231,6.427559612620966,6.102471137251467,6.3087591303899755,6.395811511907005
2018-09-30,"DFM(1, 3, 1, 0)",6.3857582609675,6.341485548182635,0.04427271278486522,4.651134397360903,1.2385527085957422,4.374651706993041,0.11647745716392875,0.44184732392610454,6.306876258465291,6.145971043999454,0.16090521446583672,6.242904218151225,4.931195738775231,0.13455690209997093,0.6203403573102231,6.426207221919627,6.097466236873046,6.306876258465291,6.404045556808732
2018-10-31,"DFM(1, 3, 1, 0)",6.386049217796841,6.341485548182635,0.04456366961420599,4.651134397360903,1.6373503729052776,5.135813601246687,0.11647745716392875,0.44184732392610454,6.408835500557538,6.383800794493566,0.0250347060639724,6.242904218151225,8.077051312364793,0.17269409064578886,0.6203403573102231,6.421314885280638,6.101181815209773,6.302722171457937,6.408835500557538
2018-11-30,"DFM(1, 3, 1, 0)",6.2846413479041185,6.341485548182635,-0.05684420027851633,4.651134397360903,0.8145152085171387,4.53551289093118,0.11647745716392875,0.44184732392610454,6.173199475448411,6.383800794493566,-0.21060131904515522,6.242904218151225,5.2312627456802705,0.17269409064578886,0.6203403573102231,6.412114646877051,6.080982143091584,6.292583185290746,6.173199475448411
2018-12-31,"DFM(1, 3, 1, 0)",6.28455350904169,6.341485548182635,-0.05693203914094447,4.651134397360903,0.6813716813800998,4.374651706993041,0.11647745716392875,0.44184732392610454,6.172874042419157,6.383800794493566,-0.2109267520744087,6.242904218151225,4.931195738775231,0.17269409064578886,0.6203403573102231,6.4102970637040135,6.078893697606516,6.290687918963858,6.172874042419157
2019-01-31,"DFM(1, 3, 1, 0)",,6.118525685547538,,4.651134397360903,,5.135813601246687,0.34347289801403297,0.44184732392610454,6.363348217837401,5.873679253937936,0.4896689638994651,6.242904218151225,8.077051312364793,0.5721814412981275,0.6203403573102231,6.363348217837401,6.5849756003987565,6.778839000070478,6.894581282218016
2019-02-28,"DFM(1, 3, 1, 0)",6.727852256147915,6.118525685547538,0.609326570600377,4.651134397360903,7.37861285373425,4.53551289093118,0.34347289801403297,0.44184732392610454,6.48216040918381,5.873679253937936,0.6084811552458742,6.242904218151225,5.2312627456802705,0.5721814412981275,0.6203403573102231,6.48216040918381,6.678476468489226,6.822734746157732,6.900517753067002
2019-03-31,"DFM(1, 3, 1, 0)",6.731737895389389,6.118525685547538,0.6132122098418513,4.651134397360903,7.244241380436576,4.374651706993041,0.34347289801403297,0.44184732392610454,6.48372006798424,5.873679253937936,0.6100408140463047,6.242904218151225,4.931195738775231,0.5721814412981275,0.6203403573102231,6.48372006798424,6.67936607993252,6.827728687332835,6.908270854496616
2019-04-30,"DFM(1, 3, 1, 0)",6.682195977968131,6.118525685547538,0.5636702924205927,4.651134397360903,7.305199878120903,5.135813601246687,0.34347289801403297,0.44184732392610454,6.681290341887513,5.625398550302285,1.0558917915852275,6.242904218151225,8.077051312364793,0.7520331554440964,0.6203403573102231,6.478189925044437,6.681290341887513,6.7253222661751835,6.818984896769066
2019-05-31,"DFM(1, 3, 1, 0)",6.23635322594156,6.118525685547538,0.1178275403940221,4.651134397360903,5.0796242395225715,4.53551289093118,0.34347289801403297,0.44184732392610454,6.174105658845922,5.625398550302285,0.5487071085436366,6.242904218151225,5.2312627456802705,0.7520331554440964,0.6203403573102231,6.462075729753418,6.174105658845922,6.246500733050942,6.596875407435976
2019-06-30,"DFM(1, 3, 1, 0)",6.210258190597595,6.118525685547538,0.09173250505005726,4.651134397360903,4.6981908083646715,4.374651706993041,0.34347289801403297,0.44184732392610454,6.155185898356421,5.625398550302285,0.5297873480541355,6.242904218151225,4.931195738775231,0.7520331554440964,0.6203403573102231,6.4510927289539906,6.155185898356421,6.212450006168619,6.548701534225505
2019-07-31,"DFM(1, 3, 1, 0)",6.21982926940623,6.118525685547538,0.10130358385869176,4.651134397360903,4.804464854414138,5.135813601246687,0.34347289801403297,0.44184732392610454,6.260315322911567,6.329033643492488,-0.06871832058092053,6.242904218151225,8.077051312364793,0.41489833567394757,0.6203403573102231,6.4579330230674135,6.174771232885459,6.260315322911567,6.522726600798687
2019-08-31,"DFM(1, 3, 1, 0)",5.85670078088234,6.118525685547538,-0.2618249046651977,4.651134397360903,1.171991318341714,4.53551289093118,0.34347289801403297,0.44184732392610454,5.822694028926715,6.329033643492488,-0.506339614565773,6.242904218151225,5.2312627456802705,0.41489833567394757,0.6203403573102231,6.44227604894096,6.14508427495946,5.822694028926715,6.09388648975689
2019-09-30,"DFM(1, 3, 1, 0)",5.863833848427347,6.118525685547538,-0.25469183712019117,4.651134397360903,1.2385527085957422,4.374651706993041,0.34347289801403297,0.44184732392610454,5.823741773408516,6.329033643492488,-0.5052918700839717,6.242904218151225,4.931195738775231,0.41489833567394757,0.6203403573102231,6.447347937369581,6.147218399561715,5.823741773408516,6.119369041253038
2019-10-31,"DFM(1, 3, 1, 0)",5.860465912992541,6.118525685547538,-0.2580597725549971,4.651134397360903,1.6373503729052776,5.135813601246687,0.34347289801403297,0.44184732392610454,6.1151335244799725,6.612092124136315,-0.4969585996563426,6.242904218151225,8.077051312364793,0.28773073833126056,0.6203403573102231,6.438823014236196,6.137600188011778,5.814502694051328,6.1151335244799725
2019-11-30,"DFM(1, 3, 1, 0)",6.123412278434381,6.118525685547538,0.004886592886843566,4.651134397360903,0.8145152085171387,4.53551289093118,0.34347289801403297,0.44184732392610454,6.630189195752861,6.612092124136315,0.018097071616545612,6.242904218151225,5.2312627456802705,0.28773073833126056,0.6203403573102231,6.450205791564279,6.15406106963863,5.836431667032091,6.630189195752861
2019-12-31,"DFM(1, 3, 1, 0)",6.127364826627235,6.118525685547538,0.008839141079697299,4.651134397360903,0.6813716813800998,4.374651706993041,0.34347289801403297,0.44184732392610454,6.644827114108357,6.612092124136315,0.03273498997204172,6.242904218151225,4.931195738775231,0.28773073833126056,0.6203403573102231,6.450652145687736,6.155118086257966,5.840457681122677,6.644827114108357
2020-01-31,"DFM(1, 3, 1, 0)",,-9.518294763329093,,4.651134397360903,,5.135813601246687,10.571468873570605,6.562840338372318,6.912660065303257,-0.6582839596307899,7.570944024934047,6.242904218151225,8.077051312364793,7.61637837285444,8.806979277545334,6.912660065303257,7.115233558777363,7.007419036287418,6.737316071134646
2020-02-29,"DFM(1, 3, 1, 0)",6.969775750574048,-9.518294763329093,16.48807051390314,4.651134397360903,7.37861285373425,4.53551289093118,10.571468873570605,6.562840338372318,6.974158713809344,-0.6582839596307899,7.632442673440134,6.242904218151225,5.2312627456802705,7.61637837285444,8.806979277545334,6.974158713809344,7.1614948014997255,7.0188782496185915,6.740597821744685
2020-03-31,"DFM(1, 3, 1, 0)",7.0279687031079785,-9.518294763329093,16.546263466437072,4.651134397360903,7.244241380436576,4.374651706993041,10.571468873570605,6.562840338372318,6.987256175861275,-0.6582839596307899,7.645540135492065,6.242904218151225,4.931195738775231,7.61637837285444,8.806979277545334,6.987256175861275,7.247673262079637,7.093700697673985,6.79574480294198
2020-04-30,"DFM(1, 3, 1, 0)",7.079687287061098,-9.518294763329093,16.597982050390193,4.651134397360903,7.305199878120903,5.135813601246687,10.571468873570605,6.562840338372318,7.225888414820513,-16.907216168587325,24.13310458340784,6.242904218151225,8.077051312364793,20.592690434057292,8.806979277545334,6.983880896227957,7.225888414820513,7.199670243922497,6.915686547225015
2020-05-31,"DFM(1, 3, 1, 0)",1.7553886945493202,-9.518294763329093,11.273683457878413,4.651134397360903,5.0796242395225715,4.53551289093118,10.571468873570605,6.562840338372318,1.4819973441671817,-16.907216168587325,18.38921351275451,6.242904218151225,5.2312627456802705,20.592690434057292,8.806979277545334,6.302057304552611,1.4819973441671817,3.0273508127904414,2.9323666679186156
2020-06-30,"DFM(1, 3, 1, 0)",1.8927090440259642,-9.518294763329093,11.411003807355058,4.651134397360903,4.6981908083646715,4.374651706993041,10.571468873570605,6.562840338372318,1.8439647938846244,-16.907216168587325,18.75118096247195,6.242904218151225,4.931195738775231,20.592690434057292,8.806979277545334,6.233206977794508,1.8439647938846244,3.1638031014480323,2.9740005680432113
2020-07-31,"DFM(1, 3, 1, 0)",2.0462267650866783,-9.518294763329093,11.56452152841577,4.651134397360903,4.804464854414138,5.135813601246687,10.571468873570605,6.562840338372318,2.8390982031939855,-11.550428607127628,14.389526810321614,6.242904218151225,8.077051312364793,9.534721724289751,8.806979277545334,5.532686123653127,0.4979749963356497,2.8390982031939855,5.1049565132457895
2020-08-31,"DFM(1, 3, 1, 0)",-11.708438160805878,-9.518294763329093,-2.1901433974767848,4.651134397360903,1.171991318341714,4.53551289093118,10.571468873570605,6.562840338372318,-18.144553809943588,-11.550428607127628,-6.59412520281596,6.242904218151225,5.2312627456802705,9.534721724289751,8.806979277545334,4.620275109681021,-6.682449622822516,-18.144553809943588,-10.435322483724569
2020-09-30,"DFM(1, 3, 1, 0)",-10.277057783354893,-9.518294763329093,-0.7587630200257998,4.651134397360903,1.2385527085957422,4.374651706993041,10.571468873570605,6.562840338372318,-16.261244466779925,-11.550428607127628,-4.710815859652296,6.242904218151225,4.931195738775231,9.534721724289751,8.806979277545334,4.806899275470318,-6.249082309558545,-16.261244466779925,-6.833525859368067
2020-10-31,"DFM(1, 3, 1, 0)",-7.218505058384794,-9.518294763329093,2.299789704944299,4.651134397360903,1.6373503729052776,5.135813601246687,10.571468873570605,6.562840338372318,-0.3303940438667805,-8.2254200476649,7.895026003798119,6.242904218151225,8.077051312364793,7.080336153950905,8.806979277545334,4.131307035204429,-3.925943137881407,-10.895222560041436,-0.3303940438667805
2020-11-30,"DFM(1, 3, 1, 0)",-7.551626696462222,-9.518294763329093,1.9666680668668715,4.651134397360903,0.8145152085171387,4.53551289093118,10.571468873570605,6.562840338372318,-0.9757547846394061,-8.2254200476649,7.249665263025493,6.242904218151225,5.2312627456802705,7.080336153950905,8.806979277545334,4.334666661054533,-4.322611827695237,-11.494507276373794,-0.9757547846394061
2020-12-31,"DFM(1, 3, 1, 0)",-7.901874860905833,-9.518294763329093,1.6164199024232602,4.651134397360903,0.6813716813800998,4.374651706993041,10.571468873570605,6.562840338372318,-2.2668633321283327,-8.2254200476649,5.958556715536567,6.242904218151225,4.931195738775231,7.080336153950905,8.806979277545334,4.405993267533783,-3.9163607578147914,-10.377396937309072,-2.2668633321283327
2021-01-31,"DFM(1, 3, 1, 0)",,5.703155951820382,,4.651134397360903,,5.135813601246687,4.111913885296193,6.562840338372318,9.070973231037282,-3.7999653602838634,12.870938591321146,6.242904218151225,8.077051312364793,7.603658602460094,8.806979277545334,9.070973231037282,9.01699629325995,3.2500900279645446,-0.27687577455136303
2021-02-28,"DFM(1, 3, 1, 0)",-1.6018928038063485,5.703155951820382,-7.30504875562673,4.651134397360903,7.37861285373425,4.53551289093118,4.111913885296193,6.562840338372318,-6.0048820534646365,-3.7999653602838634,-2.204916693180773,6.242904218151225,5.2312627456802705,7.603658602460094,8.806979277545334,-6.0048820534646365,-1.994972538837982,0.038073967252775454,1.375651417913061
2021-03-31,"DFM(1, 3, 1, 0)",-0.5794526245900267,5.703155951820382,-6.282608576410409,4.651134397360903,7.244241380436576,4.374651706993041,4.111913885296193,6.562840338372318,-5.50998132011259,-3.7999653602838634,-1.7100159598287261,6.242904218151225,4.931195738775231,7.603658602460094,8.806979277545334,-5.50998132011259,-0.86319784534526,1.2765010301864934,2.6038334716502862
2021-04-30,"DFM(2, 3, 1, 0)",-0.8810140569842306,5.703155951820382,-6.5841700088046125,4.651134397360903,7.305199878120903,5.135813601246687,4.111913885296193,6.562840338372318,-1.8547568993767287,12.131220488777439,-13.985977388154168,6.242904218151225,8.077051312364793,12.285056232896485,8.806979277545334,-5.676620284620456,-1.8547568993767287,1.2365010060438264,2.5465349848352785
2021-05-31,"DFM(1, 3, 1, 0)",0.5271526555959971,5.703155951820382,-5.176003296224385,4.651134397360903,5.0796242395225715,4.53551289093118,4.111913885296193,6.562840338372318,-0.2129418399732037,12.131220488777439,-12.344162328750642,6.242904218151225,5.2312627456802705,12.285056232896485,8.806979277545334,-4.854961862246325,-0.2129418399732037,2.4405799649842,3.498556386978746
2021-06-30,"DFM(3, 3, 1, 0)",4.95450749344275,5.703155951820382,-0.748648458377632,4.651134397360903,4.6981908083646715,4.374651706993041,4.111913885296193,6.562840338372318,1.8949168182242748,12.131220488777439,-10.236303670553164,6.242904218151225,4.931195738775231,12.285056232896485,8.806979277545334,-1.4519362226610086,1.8949168182242748,12.381794534194917,9.259842127668792
2021-07-31,"DFM(1, 3, 1, 0)",7.644542624079986,5.703155951820382,1.941386672259604,4.651134397360903,4.804464854414138,5.135813601246687,4.111913885296193,6.562840338372318,17.717503818019953,7.017252922472839,10.700250895547114,6.242904218151225,8.077051312364793,6.229033239580478,8.806979277545334,-2.7325169529256472,2.4457593952509433,17.717503818019953,13.990757719894102
2021-08-31,"DFM(1, 3, 1, 0)",5.642856079119274,5.703155951820382,-0.06029987270110837,4.651134397360903,1.171991318341714,4.53551289093118,4.111913885296193,6.562840338372318,7.449064792761588,7.017252922472839,0.43181187028874923,6.242904218151225,5.2312627456802705,6.229033239580478,8.806979277545334,-5.3393414748259245,-2.2376255991578233,7.449064792761588,7.2006188538275255
2021-09-30,"DFM(1, 3, 1, 0)",8.561090695781282,5.703155951820382,2.8579347439608993,4.651134397360903,1.2385527085957422,4.374651706993041,4.111913885296193,6.562840338372318,8.329020653596118,7.017252922472839,1.311767731123279,6.242904218151225,4.931195738775231,6.229033239580478,8.806979277545334,-6.487390519769062,-3.1269807431907006,8.329020653596118,17.052352969798186
2021-10-31,"DFM(2, 3, 1, 0)",8.920489040220957,5.703155951820382,3.217333088400575,4.651134397360903,1.6373503729052776,5.135813601246687,4.111913885296193,6.562840338372318,18.122629664817516,7.789828439743696,10.33280122507382,6.242904218151225,8.077051312364793,6.023252718501581,8.806979277545334,-4.540064302666868,-1.9315195539703076,8.604283533837794,18.122629664817516
2021-11-30,"DFM(2, 3, 1, 0)",5.481923648420617,5.703155951820382,-0.2212323033997654,4.651134397360903,0.8145152085171387,4.53551289093118,4.111913885296193,6.562840338372318,6.985795575092501,7.789828439743696,-0.8040328646511945,6.242904218151225,5.2312627456802705,6.023252718501581,8.806979277545334,-2.896697087643439,0.9714795993076786,6.573265066865288,6.985795575092501
2021-12-31,"DFM(2, 3, 1, 0)",5.374642036527422,5.703155951820382,-0.3285139152929606,4.651134397360903,0.6813716813800998,4.374651706993041,4.111913885296193,6.562840338372318,6.5958979859551174,7.789828439743696,-1.1939304537885782,6.242904218151225,4.931195738775231,6.023252718501581,8.806979277545334,-3.5111126693769927,0.7974150362070098,7.7514675093661,6.5958979859551174
2022-01-31,"DFM(2, 3, 1, 0)",,7.599235283622274,,4.651134397360903,,5.135813601246687,0.7408305986775097,6.562840338372318,0.10156878260566504,8.154889851331681,-8.053321068726017,6.242904218151225,8.077051312364793,4.6827831598494845,8.806979277545334,0.10156878260566504,1.6559740393072557,3.030309851981608,3.3302053220466896
2022-02-28,"DFM(2, 3, 1, 0)",7.044130868122678,7.599235283622274,-0.5551044154995965,4.651134397360903,7.37861285373425,4.53551289093118,0.7408305986775097,6.562840338372318,7.226751239111209,8.154889851331681,-0.9281386122204722,6.242904218151225,5.2312627456802705,4.6827831598494845,8.806979277545334,7.226751239111209,7.645358265372328,6.958571874034323,6.430212288245581
2022-03-31,"DFM(2, 3, 1, 0)",6.904376761662001,7.599235283622274,-0.6948585219602732,4.651134397360903,7.244241380436576,4.374651706993041,0.7408305986775097,6.562840338372318,7.894212182497434,8.154889851331681,-0.2606776688342478,6.242904218151225,4.931195738775231,4.6827831598494845,8.806979277545334,7.894212182497434,7.468971089933191,6.596649821603297,5.850276751353861
2022-04-30,"DFM(2, 3, 1, 0)",7.067160201187961,7.599235283622274,-0.5320750824343135,4.651134397360903,7.305199878120903,5.135813601246687,0.7408305986775097,6.562840338372318,7.6089344544943796,7.4725068038028475,0.13642765069153207,6.242904218151225,8.077051312364793,0.41977326580115937,8.806979277545334,7.915969132177225,7.6089344544943796,6.94521263129468,5.9910149429765305
2022-05-31,"DFM(1, 3, 1, 0)",7.658102567135083,7.599235283622274,0.05886728351280901,4.651134397360903,5.0796242395225715,4.53551289093118,0.7408305986775097,6.562840338372318,7.009730924525321,7.4725068038028475,-0.46277587927752606,6.242904218151225,5.2312627456802705,0.41977326580115937,8.806979277545334,7.849456326009636,7.009730924525321,8.479449442587757,7.130955006668026
2022-06-30,"DFM(1, 3, 1, 0)",6.728832814315133,7.599235283622274,-0.870402469307141,4.651134397360903,4.6981908083646715,4.374651706993041,0.7408305986775097,6.562840338372318,6.928581472778621,7.4725068038028475,-0.5439253310242265,6.242904218151225,4.931195738775231,0.41977326580115937,8.806979277545334,7.609805196708388,6.928581472778621,6.260889864931121,5.779191934494851
2022-07-31,"DFM(1, 3, 1, 0)",7.319871567893421,7.599235283622274,-0.2793637157288531,4.651134397360903,4.804464854414138,5.135813601246687,0.7408305986775097,6.562840338372318,6.580078162605938,7.635937304277829,-1.055859141671891,6.242904218151225,8.077051312364793,1.075267217295652,8.806979277545334,7.7200460450906885,6.9434769328593156,6.580078162605938,7.600758380698153
2022-08-31,"DFM(1, 3, 1, 0)",9.430231411868517,7.599235283622274,1.8309961282462428,4.651134397360903,1.171991318341714,4.53551289093118,0.7408305986775097,6.562840338372318,6.466646782095129,7.635937304277829,-1.1692905221827,6.242904218151225,5.2312627456802705,1.075267217295652,8.806979277545334,7.938609155387181,7.31220119926626,6.466646782095129,14.746070851988051
2022-09-30,"DFM(1, 3, 1, 0)",6.974103685459387,7.599235283622274,-0.6251315981628869,4.651134397360903,1.2385527085957422,4.374651706993041,0.7408305986775097,6.562840338372318,6.642700216038666,7.635937304277829,-0.9932370882391632,6.242904218151225,4.931195738775231,1.075267217295652,8.806979277545334,7.54846023053409,6.867568005138741,6.642700216038666,5.842682171842441
2022-10-31,"DFM(1, 3, 1, 0)",6.9881212269068405,7.599235283622274,-0.6111140567154338,4.651134397360903,1.6373503729052776,5.135813601246687,0.7408305986775097,6.562840338372318,5.959118007523674,7.2255438251461745,-1.2664258176225003,6.242904218151225,8.077051312364793,0.7515877812985977,8.806979277545334,7.634213381977501,6.770585987754453,6.564569429501301,5.959118007523674
2022-11-30,"DFM(1, 3, 1, 0)",7.656073115173911,7.599235283622274,0.05683783155163713,4.651134397360903,0.8145152085171387,4.53551289093118,0.7408305986775097,6.562840338372318,7.428112801611386,7.2255438251461745,0.20256897646521121,6.242904218151225,5.2312627456802705,0.7515877812985977,8.806979277545334,7.619726068329193,6.743038400185963,6.627513193174194,7.428112801611386
2022-12-31,"DFM(2, 3, 1, 0)",7.661840370597095,7.599235283622274,0.0626050869748207,4.651134397360903,0.6813716813800998,4.374651706993041,0.7408305986775097,6.562840338372318,7.448667192871441,7.2255438251461745,0.22312336772526642,6.242904218151225,4.931195738775231,0.7515877812985977,8.806979277545334,7.702213739883603,6.777810654863144,6.74766348539438,7.448667192871441
