tiubenedict/TweetsNowcast/Results/Original/DFM_Opt_W1000_GDP_TE_summary.csv
date,Model,Nowcast_A,Actual_A,Difference_A,Overall_RMSE_A,Month_RMSE_A,Quarter_RMSE_A,Year_RMSE_A,Period_RMSE_A,Nowcast_Q,Actual_Q,Difference_Q,Overall_RMSE_Q,Month_RMSE_Q,Quarter_RMSE_Q,Period_RMSE_Q,ForecastQ1,ForecastQ2,ForecastQ3,ForecastQ4
2017-01-31,"DFM(1, 3, 1, 0)",,6.930988359106127,,4.756546658625066,,4.962345748220971,0.6450652375831293,0.4220190641660147,6.6674186971673945,6.374132670872501,0.29328602629489353,5.730737376600856,7.167322017409593,0.18758396052963477,0.605499944563623,6.6674186971673945,6.249166048591517,5.963583684609532,5.899621608086074
2017-02-28,"DFM(1, 3, 1, 0)",6.070767488533324,6.930988359106127,-0.8602208705728032,4.756546658625066,7.397293322693807,4.7497353697136635,0.6450652375831293,0.4220190641660147,6.459626006545131,6.374132670872501,0.08549333567262973,5.730737376600856,4.997733434208842,0.18758396052963477,0.605499944563623,6.459626006545131,6.071378921092476,5.889198590832797,5.898100272134975
2017-03-31,"DFM(1, 3, 1, 0)",6.1125029028314515,6.930988359106127,-0.8184854562746757,4.756546658625066,7.459541473762682,4.603192559750074,0.6450652375831293,0.4220190641660147,6.48475555765308,6.374132670872501,0.11062288678057897,5.730737376600856,4.709162160942958,0.18758396052963477,0.605499944563623,6.48475555765308,6.044719252542574,5.942364261322422,6.009062710314439
2017-04-30,"DFM(1, 3, 1, 0)",6.040065128230454,6.930988359106127,-0.8909232308756732,4.756546658625066,6.873289874389905,4.962345748220971,0.6450652375831293,0.4220190641660147,6.016503152147505,7.177099324384795,-1.1605961722372893,5.730737376600856,7.167322017409593,1.1218411316709027,0.605499944563623,6.433981609810315,6.016503152147505,5.786622018956926,5.949781409349007
2017-05-31,"DFM(1, 3, 1, 0)",6.097556398098325,6.930988359106127,-0.8334319610078023,4.756546658625066,5.701753867271755,4.7497353697136635,0.6450652375831293,0.4220190641660147,6.087722564851604,7.177099324384795,-1.0893767595331907,5.730737376600856,4.997733434208842,1.1218411316709027,0.605499944563623,6.416821012260124,6.087722564851604,5.922691163170787,6.025045485364188
2017-06-30,"DFM(1, 3, 1, 0)",6.066447566200339,6.930988359106127,-0.864540792905788,4.756546658625066,4.943330972509006,4.603192559750074,0.6450652375831293,0.4220190641660147,6.062712777937346,7.177099324384795,-1.1143865464474487,5.730737376600856,4.709162160942958,1.1218411316709027,0.605499944563623,6.461618929479215,6.062712777937346,5.890803156748184,5.962179630402693
2017-07-31,"DFM(1, 3, 1, 0)",6.0424054350678436,6.930988359106127,-0.8885829240382837,4.756546658625066,4.824229115670227,4.962345748220971,0.6450652375831293,0.4220190641660147,5.862120070913367,7.5315964750689135,-1.6694764041555468,5.730737376600856,7.167322017409593,1.1210082252807914,0.605499944563623,6.459689667103782,6.033672076733984,5.862120070913367,5.926422887799648
2017-08-31,"DFM(1, 3, 1, 0)",6.831603978913581,6.930988359106127,-0.09938438019254647,4.756546658625066,1.5762301026197392,4.7497353697136635,0.6450652375831293,0.4220190641660147,6.837963668935974,7.5315964750689135,-0.6936328061329391,5.730737376600856,4.997733434208842,1.1210082252807914,0.605499944563623,6.488670533783552,6.048919216960065,6.837963668935974,6.8886753583511044
2017-09-30,"DFM(1, 3, 1, 0)",6.823802019264846,6.930988359106127,-0.1071863398412809,4.756546658625066,2.0295450803144406,4.603192559750074,0.6450652375831293,0.4220190641660147,6.823288357322421,7.5315964750689135,-0.7083081177464923,5.730737376600856,4.709162160942958,1.1210082252807914,0.605499944563623,6.488159953427523,6.044032617907888,6.823288357322421,6.872853200742487
2017-10-31,"DFM(1, 3, 1, 0)",6.821452154809116,6.930988359106127,-0.10953620429701161,4.756546658625066,1.83284634292925,4.962345748220971,0.6450652375831293,0.4220190641660147,6.86842142468671,6.641205761074875,0.22721566361183498,5.730737376600856,7.167322017409593,0.7150467297929047,0.605499944563623,6.488029456266883,6.0430734521676115,6.818491770618929,6.86842142468671
2017-11-30,"DFM(1, 3, 1, 0)",7.163225769098425,6.930988359106127,0.23223740999229747,4.756546658625066,0.7249119449371526,4.7497353697136635,0.6450652375831293,0.4220190641660147,7.499287325294247,6.641205761074875,0.858081564219372,5.730737376600856,4.997733434208842,0.7150467297929047,0.605499944563623,6.511436712715772,6.105658255111339,6.954770980971396,7.499287325294247
2017-12-31,"DFM(1, 3, 1, 0)",7.1647411906555325,6.930988359106127,0.2337528315494053,4.756546658625066,0.7464540394242932,4.603192559750074,0.6450652375831293,0.4220190641660147,7.504886575217954,6.641205761074875,0.8636808141430787,5.730737376600856,4.709162160942958,0.7150467297929047,0.605499944563623,6.508308832751637,6.113323172978445,6.9718593064463725,7.504886575217954
2018-01-31,"DFM(1, 3, 1, 0)",,6.341485548182635,,4.756546658625066,,4.962345748220971,0.12441084063104271,0.4220190641660147,7.079362143227001,6.45455988268846,0.6248022605385408,5.730737376600856,7.167322017409593,0.3633871652289678,0.605499944563623,7.079362143227001,6.62819183787927,6.185979519065194,5.936162474839185
2018-02-28,"DFM(1, 3, 1, 0)",6.0913017799968605,6.341485548182635,-0.25018376818577437,4.756546658625066,7.397293322693807,4.7497353697136635,0.12441084063104271,0.4220190641660147,6.3818831709030945,6.45455988268846,-0.07267671178536528,5.730737376600856,4.997733434208842,0.3633871652289678,0.605499944563623,6.3818831709030945,6.03235249461095,5.968657517429401,6.009109171328531
2018-03-31,"DFM(1, 3, 1, 0)",6.1408010938578395,6.341485548182635,-0.20068445432479542,4.756546658625066,7.459541473762682,4.603192559750074,0.12441084063104271,0.4220190641660147,6.432403024846435,6.45455988268846,-0.022156857842024813,5.730737376600856,4.709162160942958,0.3633871652289678,0.605499944563623,6.432403024846435,6.067784214482359,6.026656275642253,6.063606541096836
2018-04-30,"DFM(1, 3, 1, 0)",6.197064433232358,6.341485548182635,-0.1444211149502772,4.756546658625066,6.873289874389905,4.962345748220971,0.12441084063104271,0.4220190641660147,6.069750423684779,6.378895138790686,-0.3091447151059068,5.730737376600856,7.167322017409593,0.28505698613967817,0.605499944563623,6.4341111824246635,6.069750423684779,6.148805709623068,6.159565350718694
2018-05-31,"DFM(1, 3, 1, 0)",6.1913655611988805,6.341485548182635,-0.1501199869837544,4.756546658625066,5.701753867271755,4.7497353697136635,0.12441084063104271,0.4220190641660147,6.0826714312269266,6.378895138790686,-0.29622370756375904,5.730737376600856,4.997733434208842,0.28505698613967817,0.605499944563623,6.44303672199705,6.0826714312269266,6.1308848332011365,6.124631345674074
2018-06-30,"DFM(1, 3, 1, 0)",6.246413394889694,6.341485548182635,-0.09507215329294105,4.756546658625066,4.943330972509006,4.603192559750074,0.12441084063104271,0.4220190641660147,6.133022171101315,6.378895138790686,-0.24587296768937072,5.730737376600856,4.709162160942958,0.28505698613967817,0.605499944563623,6.44727308966802,6.133022171101315,6.198310115607781,6.220135202182983
2018-07-31,"DFM(1, 3, 1, 0)",6.283713917057865,6.341485548182635,-0.05777163112477002,4.756546658625066,4.824229115670227,4.962345748220971,0.12441084063104271,0.4220190641660147,6.211447550249565,6.145971043999454,0.06547650625011059,5.730737376600856,7.167322017409593,0.11665347459602818,0.605499944563623,6.451251451081289,6.143231017195967,6.211447550249565,6.336818855577016
2018-08-31,"DFM(1, 3, 1, 0)",6.367221826680147,6.341485548182635,0.025736278497512366,4.756546658625066,1.5762301026197392,4.7497353697136635,0.12441084063104271,0.4220190641660147,6.280884107630796,6.145971043999454,0.13491306363134203,5.730737376600856,4.997733434208842,0.11665347459602818,0.605499944563623,6.435009016560765,6.111775007167394,6.280884107630796,6.358596063521407
2018-09-30,"DFM(1, 3, 1, 0)",6.374915648807256,6.341485548182635,0.03343010062462071,4.756546658625066,2.0295450803144406,4.603192559750074,0.12441084063104271,0.4220190641660147,6.2813792852437125,6.145971043999454,0.13540824124425832,5.730737376600856,4.709162160942958,0.11665347459602818,0.605499944563623,6.428900816717458,6.105476330916822,6.2813792852437125,6.386658324902607
2018-10-31,"DFM(1, 3, 1, 0)",6.36344965657778,6.341485548182635,0.021964108395144954,4.756546658625066,1.83284634292925,4.962345748220971,0.12441084063104271,0.4220190641660147,6.358649789715425,6.383800794493566,-0.025151004778140695,5.730737376600856,7.167322017409593,0.20745659017014642,0.605499944563623,6.428139783699648,6.092475703666892,6.265184010941143,6.358649789715425
2018-11-30,"DFM(1, 3, 1, 0)",6.273008998232799,6.341485548182635,-0.06847654994983632,4.756546658625066,0.7249119449371526,4.7497353697136635,0.12441084063104271,0.4220190641660147,6.130102938380893,6.383800794493566,-0.25369785611267304,5.730737376600856,4.997733434208842,0.20745659017014642,0.605499944563623,6.416896704495948,6.0830701447127,6.263568850770377,6.130102938380893
2018-12-31,"DFM(1, 3, 1, 0)",6.273138422265601,6.341485548182635,-0.06834712591703429,4.756546658625066,0.7464540394242932,4.603192559750074,0.12441084063104271,0.4220190641660147,6.130582439752928,6.383800794493566,-0.25321835474063814,5.730737376600856,4.709162160942958,0.20745659017014642,0.605499944563623,6.415079682098941,6.083059413320277,6.263020101303699,6.130582439752928
2019-01-31,"DFM(1, 3, 1, 0)",,6.118525685547538,,4.756546658625066,,4.962345748220971,0.32048877289848227,0.4220190641660147,6.2914013726395135,5.873679253937936,0.4177221187015778,5.730737376600856,7.167322017409593,0.5181910429193852,0.605499944563623,6.2914013726395135,6.503241610856834,6.689062961253368,6.8044089665541145
2019-02-28,"DFM(1, 3, 1, 0)",6.659024137268932,6.118525685547538,0.540498451721394,4.756546658625066,7.397293322693807,4.7497353697136635,0.32048877289848227,0.4220190641660147,6.423840284707901,5.873679253937936,0.5501610307699654,5.730737376600856,4.997733434208842,0.5181910429193852,0.605499944563623,6.423840284707901,6.632232460209497,6.7465139436069315,6.807683999550939
2019-03-31,"DFM(1, 3, 1, 0)",6.700364070412945,6.118525685547538,0.5818383848654074,4.756546658625066,7.459541473762682,4.603192559750074,0.32048877289848227,0.4220190641660147,6.446738537655802,5.873679253937936,0.5730592837178667,5.730737376600856,4.709162160942958,0.5181910429193852,0.605499944563623,6.446738537655802,6.663943441321384,6.79654456849725,6.866254223384113
2019-04-30,"DFM(1, 3, 1, 0)",6.620184541644214,6.118525685547538,0.5016588560966762,4.756546658625066,6.873289874389905,4.962345748220971,0.32048877289848227,0.4220190641660147,6.639362087228967,5.625398550302285,1.0139635369266822,5.730737376600856,7.167322017409593,0.7331922292664662,0.605499944563623,6.417965188334986,6.639362087228967,6.652946394823162,6.74546544986503
2019-05-31,"DFM(1, 3, 1, 0)",6.231832094593459,6.118525685547538,0.11330640904592126,4.756546658625066,5.701753867271755,4.7497353697136635,0.32048877289848227,0.4220190641660147,6.1543761363927265,5.625398550302285,0.5289775860904413,5.730737376600856,4.997733434208842,0.7331922292664662,0.605499944563623,6.4127073115216175,6.1543761363927265,6.253211165489629,6.593031969107131
2019-06-30,"DFM(1, 3, 1, 0)",6.254606755405545,6.118525685547538,0.13608106985800728,4.756546658625066,4.943330972509006,4.603192559750074,0.32048877289848227,0.4220190641660147,6.177461222801752,5.625398550302285,0.552062672499467,5.730737376600856,4.709162160942958,0.7331922292664662,0.605499944563623,6.437254671129389,6.177461222801752,6.280146143070608,6.631266738944967
2019-07-31,"DFM(1, 3, 1, 0)",6.214538359008759,6.118525685547538,0.096012673461221,4.756546658625066,4.824229115670227,4.962345748220971,0.32048877289848227,0.4220190641660147,6.27100643176049,6.329033643492488,-0.05802721173199732,5.730737376600856,7.167322017409593,0.4325264500369855,0.605499944563623,6.41005396755856,6.149155447475711,6.27100643176049,6.518116993951968
2019-08-31,"DFM(3, 3, 1, 0)",5.8460027521173075,6.118525685547538,-0.2725229334302304,4.756546658625066,1.5762301026197392,4.7497353697136635,0.32048877289848227,0.4220190641660147,5.797084824544677,6.329033643492488,-0.5319488189478108,5.730737376600856,4.997733434208842,0.4325264500369855,0.605499944563623,6.448115983102989,6.142811517322234,5.797084824544677,6.077099816537917
2019-09-30,"DFM(3, 3, 1, 0)",5.856740984101805,6.118525685547538,-0.26178470144573307,4.756546658625066,2.0295450803144406,4.603192559750074,0.32048877289848227,0.4220190641660147,5.804723919509201,6.329033643492488,-0.5243097239832863,5.730737376600856,4.709162160942958,0.4325264500369855,0.605499944563623,6.449689230101522,6.148882947882317,5.804723919509201,6.110057092640409
2019-10-31,"DFM(3, 3, 1, 0)",5.867103623675285,6.118525685547538,-0.2514220618722529,4.756546658625066,1.83284634292925,4.962345748220971,0.32048877289848227,0.4220190641660147,6.151987559462316,6.612092124136315,-0.4601045646739994,5.730737376600856,7.167322017409593,0.27344056276733003,0.605499944563623,6.456634522147032,6.159504739599871,5.800738467090157,6.151987559462316
2019-11-30,"DFM(3, 3, 1, 0)",6.093482359055646,6.118525685547538,-0.02504332649189145,4.756546658625066,0.7249119449371526,4.7497353697136635,0.32048877289848227,0.4220190641660147,6.519346343274844,6.612092124136315,-0.09274578086147134,5.730737376600856,4.997733434208842,0.27344056276733003,0.605499944563623,6.381140082123882,6.050468971619295,5.716335909953741,6.519346343274844
2019-12-31,"DFM(3, 3, 1, 0)",6.101424081721807,6.118525685547538,-0.017101603825731004,4.756546658625066,0.7464540394242932,4.603192559750074,0.32048877289848227,0.4220190641660147,6.548757822228993,6.612092124136315,-0.06333430190732248,5.730737376600856,4.709162160942958,0.27344056276733003,0.605499944563623,6.388661274664523,6.066079264633499,5.7364397411680415,6.548757822228993
2020-01-31,"DFM(3, 3, 1, 0)",,-9.518294763329093,,4.756546658625066,,4.962345748220971,10.901544769792524,6.713521590107162,6.910090152914429,-0.6582839596307899,7.568374112545219,5.730737376600856,7.167322017409593,7.612936066320936,8.081835903819972,6.910090152914429,7.056831707970906,7.042476982418091,6.822528587559567
2020-02-29,"DFM(3, 3, 1, 0)",7.023006968570833,-9.518294763329093,16.541301731899928,4.756546658625066,7.397293322693807,4.7497353697136635,10.901544769792524,6.713521590107162,7.038193232476157,-0.6582839596307899,7.696477192106947,5.730737376600856,4.997733434208842,7.612936066320936,8.081835903819972,7.038193232476157,7.171471368929131,7.078956878744036,6.819585872864019
2020-03-31,"DFM(3, 3, 1, 0)",6.846010794142332,-9.518294763329093,16.364305557471425,4.756546658625066,7.459541473762682,4.603192559750074,10.901544769792524,6.713521590107162,6.914980777165566,-0.6582839596307899,7.5732647367963555,5.730737376600856,4.709162160942958,7.612936066320936,8.081835903819972,6.914980777165566,6.972791129604952,6.871460963243555,6.644619189199639
2020-04-30,"DFM(2, 3, 1, 0)",6.802656613644187,-9.518294763329093,16.32095137697328,4.756546658625066,6.873289874389905,4.962345748220971,10.901544769792524,6.713521590107162,6.999455218440115,-16.907216168587325,23.90667138702744,5.730737376600856,7.167322017409593,19.678186186365394,8.081835903819972,6.942641297656371,6.999455218440115,6.758331016809859,6.5366374467703965
2020-05-31,"DFM(3, 3, 1, 0)",3.328577923080789,-9.518294763329093,12.846872686409881,4.756546658625066,5.701753867271755,4.7497353697136635,10.901544769792524,6.713521590107162,1.1152308618604545,-16.907216168587325,18.02244703044778,5.730737376600856,4.997733434208842,19.678186186365394,8.081835903819972,6.117287146223578,1.1152308618604545,2.7915379263685294,9.289032149113474
2020-06-30,"DFM(3, 3, 1, 0)",2.458298245336188,-9.518294763329093,11.976593008665281,4.756546658625066,4.943330972509006,4.603192559750074,10.901544769792524,6.713521590107162,-0.6174801061714241,-16.907216168587325,16.2897360624159,5.730737376600856,4.709162160942958,19.678186186365394,8.081835903819972,6.245673880667075,-0.6174801061714241,2.3206825293693494,8.142658489277036
2020-07-31,"DFM(1, 3, 1, 0)",2.222557335963926,-9.518294763329093,11.740852099293019,4.756546658625066,4.824229115670227,4.962345748220971,10.901544769792524,6.713521590107162,4.09054069105019,-11.550428607127628,15.640969298177819,5.730737376600856,7.167322017409593,10.39993822546383,8.081835903819972,6.1326019371967355,-1.1080036823426207,4.09054069105019,6.165014173542068
2020-08-31,"DFM(1, 3, 1, 0)",-5.8190938205366916,-9.518294763329093,3.6992009427924017,4.756546658625066,1.5762301026197392,4.7497353697136635,10.901544769792524,6.713521590107162,-5.5965793219848115,-11.550428607127628,5.953849285142817,5.730737376600856,4.997733434208842,10.39993822546383,8.081835903819972,4.764060872944572,-1.1637203106864016,-5.5965793219848115,0.1166115427596699
2020-09-30,"DFM(1, 3, 1, 0)",-5.346033965381025,-9.518294763329093,4.172260797948068,4.756546658625066,2.0295450803144406,4.603192559750074,10.901544769792524,6.713521590107162,-4.888003869567396,-11.550428607127628,6.662424737560232,5.730737376600856,4.709162160942958,10.39993822546383,8.081835903819972,4.955751617798464,-0.9225313488633082,-4.888003869567396,1.2303655003906933
2020-10-31,"DFM(2, 3, 1, 0)",-5.521597680872725,-9.518294763329093,3.996697082456368,4.756546658625066,1.83284634292925,4.962345748220971,10.901544769792524,6.713521590107162,0.38454688628453226,-8.2254200476649,8.609966933949432,5.730737376600856,7.167322017409593,7.237149348355639,8.081835903819972,4.9683172854423585,-0.519411674470196,-4.66461001427519,0.38454688628453226
2020-11-30,"DFM(2, 3, 1, 0)",-7.808527327441239,-9.518294763329093,1.709767435887854,4.756546658625066,0.7249119449371526,4.7497353697136635,10.901544769792524,6.713521590107162,-1.9227593208065148,-8.2254200476649,6.3026607268583845,5.730737376600856,4.997733434208842,7.237149348355639,8.081835903819972,5.200537737327162,-0.23559439207743083,-4.877681058392051,-1.9227593208065148
2020-12-31,"DFM(2, 3, 1, 0)",-7.7337548047877185,-9.518294763329093,1.7845399585413748,4.756546658625066,0.7464540394242932,4.603192559750074,10.901544769792524,6.713521590107162,-1.6471277746180633,-8.2254200476649,6.578292273046836,5.730737376600856,4.709162160942958,7.237149348355639,8.081835903819972,5.405874693600315,-0.41368513236517845,-4.795709191196886,-1.6471277746180633
2021-01-31,"DFM(1, 3, 1, 0)",,5.703155951820382,,4.756546658625066,,4.962345748220971,3.883629463150544,6.713521590107162,1.9451994000912136,-3.7999653602838634,5.7451647603750775,5.730737376600856,7.167322017409593,3.662730625557612,8.081835903819972,1.9451994000912136,1.342727859092296,2.4420225398801114,3.754749616850196
2021-02-28,"DFM(1, 3, 1, 0)",-1.473832768703598,5.703155951820382,-7.17698872052398,4.756546658625066,7.397293322693807,4.7497353697136635,3.883629463150544,6.713521590107162,-5.233740710981809,-3.7999653602838634,-1.4337753506979452,5.730737376600856,4.997733434208842,3.662730625557612,8.081835903819972,-5.233740710981809,-2.4021353871163873,-0.006256715176802707,1.5200871048906035
2021-03-31,"DFM(1, 3, 1, 0)",-2.1901601109247326,5.703155951820382,-7.893316062745114,4.756546658625066,7.459541473762682,4.603192559750074,3.883629463150544,6.713521590107162,-6.076839758679248,-3.7999653602838634,-2.2768743983953845,5.730737376600856,4.709162160942958,3.662730625557612,8.081835903819972,-6.076839758679248,-2.811658380991152,-0.7288076238230161,0.6621701103247606
2021-04-30,"DFM(2, 3, 1, 0)",1.8721227959034303,5.703155951820382,-3.831033155916952,4.756546658625066,6.873289874389905,4.962345748220971,3.883629463150544,6.713521590107162,1.7491032316007913,12.131220488777439,-10.382117257176647,5.730737376600856,7.167322017409593,10.178503251669976,8.081835903819972,-1.1474603984763228,1.7491032316007913,2.449785636456925,4.2571099663213126
2021-05-31,"DFM(2, 3, 1, 0)",0.29517331213246845,5.703155951820382,-5.407982639687914,4.756546658625066,5.701753867271755,4.7497353697136635,3.883629463150544,6.713521590107162,0.9601856926738637,12.131220488777439,-11.171034796103575,5.730737376600856,4.997733434208842,10.178503251669976,8.081835903819972,-1.8872365116451801,0.9601856926738637,1.2237703331607,2.691090568162706
2021-06-30,"DFM(2, 3, 1, 0)",5.128927405473549,5.703155951820382,-0.5742285463468333,4.756546658625066,4.943330972509006,4.603192559750074,3.883629463150544,6.713521590107162,3.2867076036465175,12.131220488777439,-8.844512885130921,5.730737376600856,4.709162160942958,10.178503251669976,8.081835903819972,-0.49686274725036483,3.2867076036465175,11.398952259577516,9.541130044390844
2021-07-31,"DFM(1, 3, 1, 0)",5.162892527222729,5.703155951820382,-0.5402634245976534,4.756546658625066,4.824229115670227,4.962345748220971,3.883629463150544,6.713521590107162,13.850582606796221,7.017252922472839,6.833329684323383,5.730737376600856,7.167322017409593,5.0199974793093425,8.081835903819972,-3.342515460429963,0.2763102846530794,13.850582606796221,10.148074022944144
2021-08-31,"DFM(3, 3, 1, 0)",4.791858841100449,5.703155951820382,-0.911297110719933,4.756546658625066,1.5762301026197392,4.7497353697136635,3.883629463150544,6.713521590107162,5.721976943234466,7.017252922472839,-1.2952759792383723,5.730737376600856,4.997733434208842,5.0199974793093425,8.081835903819972,-1.9033033998578972,0.369531318967125,5.721976943234466,5.587908825006295
2021-09-30,"DFM(3, 3, 1, 0)",3.1206952531571464,5.703155951820382,-2.582460698663236,4.756546658625066,2.0295450803144406,4.603192559750074,3.883629463150544,6.713521590107162,1.799112483602931,7.017252922472839,-5.2181404388699075,5.730737376600856,4.709162160942958,5.0199974793093425,8.081835903819972,-2.0284672773379677,-2.6837282767142225,1.799112483602931,2.8762013314008126
2021-10-31,"DFM(3, 3, 1, 0)",5.783847966782507,5.703155951820382,0.08069201496212486,4.756546658625066,1.83284634292925,4.962345748220971,3.883629463150544,6.713521590107162,5.3577711234514585,7.789828439743696,-2.432057316292237,5.730737376600856,7.167322017409593,1.4714543214491551,8.081835903819972,-2.484014174639319,2.4320921474845125,10.197350325503397,5.3577711234514585
2021-11-30,"DFM(3, 3, 1, 0)",5.545074778764181,5.703155951820382,-0.1580811730562015,4.756546658625066,0.7249119449371526,4.7497353697136635,3.883629463150544,6.713521590107162,7.215308098606453,7.789828439743696,-0.5745203411372426,5.730737376600856,4.997733434208842,1.4714543214491551,8.081835903819972,-2.7879730427416005,1.287532221217298,12.54556653799283,7.215308098606453
2021-12-31,"DFM(3, 3, 1, 0)",5.565426108853311,5.703155951820382,-0.13772984296707147,4.756546658625066,0.7464540394242932,4.603192559750074,3.883629463150544,6.713521590107162,7.289271701478063,7.789828439743696,-0.5005567382656331,5.730737376600856,4.709162160942958,1.4714543214491551,8.081835903819972,-3.0502195931995333,1.2289344618483264,12.446747238953215,7.289271701478063
2022-01-31,"DFM(3, 3, 1, 0)",,7.599235283622274,,4.756546658625066,,4.962345748220971,1.1348393047754486,6.713521590107162,5.492147579051298,8.154889851331681,-2.6627422722803837,5.730737376600856,7.167322017409593,2.2809952374311266,8.081835903819972,5.492147579051298,6.042147508635918,5.43224251625415,5.103529039139715
2022-02-28,"DFM(3, 3, 1, 0)",6.149700706182859,7.599235283622274,-1.4495345774394153,4.756546658625066,7.397293322693807,4.7497353697136635,1.1348393047754486,6.713521590107162,6.096216500631379,8.154889851331681,-2.0586733507003023,5.730737376600856,4.997733434208842,2.2809952374311266,8.081835903819972,6.096216500631379,7.043787041924093,6.144125333627798,5.399781581509038
2022-03-31,"DFM(3, 3, 1, 0)",5.948511033606718,7.599235283622274,-1.6507242500155561,4.756546658625066,7.459541473762682,4.603192559750074,1.1348393047754486,6.713521590107162,6.08595644349132,8.154889851331681,-2.068933407840362,5.730737376600856,4.709162160942958,2.2809952374311266,8.081835903819972,6.08595644349132,6.671703345898898,5.858455342157354,5.26653417170373
2022-04-30,"DFM(3, 3, 1, 0)",8.75515484112881,7.599235283622274,1.155919557506536,4.756546658625066,6.873289874389905,4.962345748220971,1.1348393047754486,6.713521590107162,7.9910617035047204,7.4725068038028475,0.518554899701873,5.730737376600856,7.167322017409593,0.5691636434752767,8.081835903819972,6.4554693023111085,7.9910617035047204,11.504368845723825,8.984190900190528
2022-05-31,"DFM(3, 3, 1, 0)",7.395309465619371,7.599235283622274,-0.20392581800290355,4.756546658625066,5.701753867271755,4.7497353697136635,1.1348393047754486,6.713521590107162,6.868649701112017,7.4725068038028475,-0.6038571026908306,5.730737376600856,4.997733434208842,0.5691636434752767,8.081835903819972,6.338351260814774,6.868649701112017,8.11545498560545,6.630071547377815
2022-06-30,"DFM(3, 3, 1, 0)",6.158533874777361,7.599235283622274,-1.4407014088449133,4.756546658625066,4.943330972509006,4.603192559750074,1.1348393047754486,6.713521590107162,6.890871888510469,7.4725068038028475,-0.5816349152923781,5.730737376600856,4.709162160942958,0.5691636434752767,8.081835903819972,6.162151310504053,6.890871888510469,5.341954249827049,4.562212404826077
2022-07-31,"DFM(3, 3, 1, 0)",6.764075915758672,7.599235283622274,-0.8351593678636027,4.756546658625066,4.824229115670227,4.962345748220971,1.1348393047754486,6.713521590107162,4.995362758670108,7.635937304277829,-2.6405745456077208,5.730737376600856,7.167322017409593,1.8458716201263465,8.081835903819972,5.989273308822886,6.998468825488774,4.995362758670108,6.919154042422929
2022-08-31,"DFM(3, 3, 1, 0)",8.153896999411758,7.599235283622274,0.554661715789484,4.756546658625066,1.5762301026197392,4.7497353697136635,1.1348393047754486,6.713521590107162,6.422220807811267,7.635937304277829,-1.2137164964665619,5.730737376600856,4.997733434208842,1.8458716201263465,8.081835903819972,6.425088907776944,7.207019325603786,6.422220807811267,10.23503854027712
2022-09-30,"DFM(3, 3, 1, 0)",8.345102737631006,7.599235283622274,0.7458674540087316,4.756546658625066,2.0295450803144406,4.603192559750074,1.1348393047754486,6.713521590107162,6.303276638820525,7.635937304277829,-1.332660665457304,5.730737376600856,4.709162160942958,1.8458716201263465,8.081835903819972,6.562590971999365,7.165009367382866,6.303276638820525,11.017695885445299
2022-10-31,"DFM(2, 3, 1, 0)",9.624120928599634,7.599235283622274,2.02488564497736,4.756546658625066,1.83284634292925,4.962345748220971,1.1348393047754486,6.713521590107162,15.675089098433023,7.2255438251461745,8.449545273286848,5.730737376600856,7.167322017409593,4.975218672581106,8.081835903819972,7.524499744409602,7.122160643721546,6.186926956253377,15.675089098433023
2022-11-30,"DFM(3, 3, 1, 0)",7.217870360375134,7.599235283622274,-0.38136492324714055,4.756546658625066,0.7249119449371526,4.7497353697136635,1.1348393047754486,6.713521590107162,5.86636631866946,7.2255438251461745,-1.3591775064767146,5.730737376600856,4.997733434208842,4.975218672581106,8.081835903819972,6.464186180061046,7.207568437465861,6.739553319645872,5.86636631866946
2022-12-31,"DFM(3, 3, 1, 0)",7.316383301429141,7.599235283622274,-0.282851982193133,4.756546658625066,0.7464540394242932,4.603192559750074,1.1348393047754486,6.713521590107162,6.217464611709675,7.2255438251461745,-1.0080792134365,5.730737376600856,4.709162160942958,4.975218672581106,8.081835903819972,6.3643937970427205,7.1152683180424665,6.723388115707053,6.217464611709675
